packages/elements/bolt-icon/src/svgs/reporting.svg

<svg enable-background="new 0 0 32 32" viewBox="0 0 32 32" xmlns="http://www.w3.org/2000/svg"><path clip-rule="evenodd" d="m20.9.4 3.4 4.2c.3.4.2 1.1-.2 1.4-.2.1-.4.2-.6.2-.3 0-.6-.1-.8-.4l-1.8-2.3c-1.2 8.4-8.4 14.7-16.9 14.7-.6 0-1-.4-1-1s.4-1 1-1c7.5 0 13.9-5.5 15-12.9l-2.4 1.9c-.4.3-1.1.2-1.4-.2s-.2-1.1.2-1.4l4.2-3.4c.1 0 .1 0 .1-.1.1 0 .1-.1.2-.1h.5c.1 0 .1 0 .2.1.1 0 .1 0 .1.1.1 0 .2.1.2.2zm-16.9 23.9c.5 0 1 .4 1 .9v.1 5.7c0 .5-.4 1-.9 1h-.1c-.5 0-1-.4-1-.9v-.1-5.7c0-.6.4-1 1-1zm8-4.8c.5 0 1 .4 1 .9v.1 10.5c0 .6-.4 1-1 1s-1-.4-1-1v-10.5c0-.5.4-1 .9-1zm8-3.5c.5 0 1 .4 1 .9v.1 14c0 .6-.4 1-1 1s-1-.4-1-1v-14c0-.5.4-1 .9-1zm8-5.2c.5 0 1 .4 1 .9v.1 19.2c0 .6-.4 1-1 1s-1-.4-1-1v-19.2c0-.6.4-1 1-1z" fill="#151619" fill-rule="evenodd"/></svg>

<?xml version="1.0" encoding="utf-8"?>
<!-- Generator: Adobe Illustrator 25.2.0, SVG Export Plug-In . SVG Version: 6.00 Build 0)  -->
<svg version="1.1" id="Layer_1" xmlns="http://www.w3.org/2000/svg" xmlns:xlink="http://www.w3.org/1999/xlink" x="0px" y="0px"
	 viewBox="0 0 32 32" style="enable-background:new 0 0 32 32;" xml:space="preserve">
<style type="text/css">
	.st0{fill-rule:evenodd;clip-rule:evenodd;fill:#151619;}
</style>
<path class="st0" d="M20.9,0.4l3.4,4.2C24.6,5,24.5,5.7,24.1,6l0,0c-0.2,0.1-0.4,0.2-0.6,0.2c-0.3,0-0.6-0.1-0.8-0.4l-1.8-2.3
	C19.7,11.9,12.5,18.2,4,18.2c-0.6,0-1-0.4-1-1c0-0.6,0.4-1,1-1c7.5,0,13.9-5.5,15-12.9l-2.4,1.9c-0.4,0.3-1.1,0.2-1.4-0.2
	c-0.3-0.4-0.2-1.1,0.2-1.4l4.2-3.4c0.1,0,0.1,0,0.1-0.1c0,0,0,0,0,0c0.1,0,0.1-0.1,0.2-0.1h0.5c0.1,0,0.1,0,0.2,0.1
	c0.1,0,0.1,0,0.1,0.1c0,0,0,0,0,0C20.8,0.2,20.9,0.3,20.9,0.4z M4,24.3c0.5,0,1,0.4,1,0.9c0,0,0,0.1,0,0.1V31c0,0.5-0.4,1-0.9,1
	c0,0-0.1,0-0.1,0c-0.5,0-1-0.4-1-0.9c0,0,0-0.1,0-0.1v-5.7C3,24.7,3.4,24.3,4,24.3z M12,19.5c0.5,0,1,0.4,1,0.9c0,0,0,0.1,0,0.1V31
	c0,0.6-0.4,1-1,1c-0.6,0-1-0.4-1-1V20.5c0-0.5,0.4-1,0.9-1C11.9,19.5,12,19.5,12,19.5z M20,16c0.5,0,1,0.4,1,0.9c0,0,0,0.1,0,0.1v14
	c0,0.6-0.4,1-1,1s-1-0.4-1-1V17c0-0.5,0.4-1,0.9-1C19.9,16,20,16,20,16z M28,10.8c0.5,0,1,0.4,1,0.9c0,0,0,0.1,0,0.1V31
	c0,0.6-0.4,1-1,1s-1-0.4-1-1V11.8C27,11.2,27.4,10.8,28,10.8z"/>
</svg>
